X:1
T:San Fernando Valley
T:San Fernando Valley
T:Gordon Jenkins
T:Country Shuffle
C:Gordon Jenkins
Z:All Rights Reserved
L:1/4
M:4/4
K:F
V:1 treble 
%%MIDI program 4
V:1
 z/"F" C C/"Gm7" D/D/ F |:"F" F z z2 | z/"F" C C/"Bb" D/D/ F |"F" F2 z2 | z/ C C/"Gm7" D/D/F/ z/ | %5
w: Oh! I'm pack- in my|grip|And I'm leav- in to-|day|'Cause I'm tak- in a|
"F" F z z2 | z/ C C/"Bb" D F |"F" F2"Bb" z2 |"F" z/ F3/2"Gm" G F |"F" A F G F |"F7" A F _A2 | %11
w: trip|Cal- i- for- nia|way|I'm gon- na|set- tle down and|nev- er more|
"Bb" G4 | z/ F3/2 G F |"F" A3/2 c/ A F |"Bb" G F D"F" F- | F4 | z/ C C/ D F | F"Gm7" z z2 | %18
w: roam|and make the|San Fer- nan- do|Vall- ey my home.||I'll for- get my|sins,|
"F" z/ C C/"Bb" D/D/ F |"F" F2"Bb" z2 |"F" z/ C C/"Gm7" D F |"F" F"Gm7" z z2 | z/"F" C C/"Bb" D F | %23
w: I'll be mak- in new|friends|where the West be-|gins|and the sun- set|
 F2 z2 | z/"F" F3/2"Gm7" G F |"F" A F G F |"F7" A F _A2 |"Bb" G4 | z/ F3/2 G F |"F" A3/2 c/ A F | %30
w: ends|cause i've de-|cid- ed where "yours|tru- ly" should|be|and its the|San Fer- nan- do|
"Bb" G F D"F" F- | F2 z2 | z/"F" A3/2 B =B | c2 c3/2 d/ |"F7" c A3 |"Bb" F2 F3/2 G/ | F D3 | %37
w: Val- ley for me||I think that|I'm safe in|stat- in|he will be|wait- ing|
"F" C D F G | A c A"C7" G- | G4 | z/"Am" A3/2 B =B |"F" c2 c3/2 d/ |"F7" c A3 | F2 F3/2 G/ | F D3 | %45
w: When my lone- ly|jour- ney is done||and kind- ly-|old Rev- rend|Thom- as|Made us a|pro- mise|
"F" C D F G |"G" A F A2 |"C7" G4 | z/ C C/ D/D/ F |"F" F"Gm7" z z2 |"F" z/ C C/"Bb" D F | %51
w: He will make the|two of us|one|So I'm hit- ting the|trail|To the cow coun-|
"F" F2 z2 |"F" z/ C C/"Gm" D/D/ F |"F" F z z2 | z/ C C/"Bb" D F |"F" F2"Bb" z2 |"F" z/ F3/2 G F | %57
w: try|You can for- ward my|mail|Care of R. F.|D.|I'm gon- na|
 A F G F |"F7" A F _A2 |"Bb" G4 | z/ F3/2 G F |"F" A3/2 c/ A F |"Bb" G F D"F" F- |1 F2 z2 | %64
w: set- tle down and|nev- er more|roam|And make the|San Fer- nan- do|val- ley my home||
 z/"F" C C/ D/D/ F :|2"F" F4- | F4 |] %67
w: Oh I'm pack- in- my|||

